X:1
T:There’s a Message from the Lord
T:There’s a Message from the Lord
T:John Robson Sweney
T:Frances Jane (Fanny) Crosby, 1884
T:Public Domain Courtesy of the Cyber Hymnal™
T:Public Domain Courtesy of the Cyber Hymnal™
C:John Robson Sweney
Z:Public Domain
Z:Courtesy of the Cyber Hymnal™
%%score ( 1 2 ) ( 3 4 )
L:1/8
Q:1/4=95
M:4/4
K:Eb
V:1 treble 
V:2 treble 
V:3 bass 
V:4 bass 
V:1
 [EG][FA] | [GB][GB][GB][Ac] [GB]2 [Ge][Ge] | (e4 B2) [EG][FA] | [Ac][GB][GB][EG] | E2 [DF][EG] | %5
w: 1.~There’s a|mes- sage from the Lord, Will you|come? * Hear it|sound- ing from His|Word, Will you|
w: 2.~He has|tar- ried long for you, Will you|come? * See, His|locks are wet with|dew, Will you|
w: 3.~Will you|heed the Sav- ior’s call? Will you|come? * To the|feast pre- pared for|all, Will you|
 [DF]6 [EG][FA] | [GB][GB][GB][Ac] [GB]2 [Ge][Ge] | (e4 c2) [Ec][Ec] | %8
w: come? Who- so-|ev- er on His name will be-|lieve, * Life e-|
w: come? He a-|lone your ma- ny sins can for-|give, * Will you|
w: come? You will|find Him at the cross, wait- ing|there, * With the|
 [EB][EB][EB][Ge] [Fd]2 [Ec]2 | [DB]6 ||"^Refrain" [DB][DB] | [DB][DA][DA][DA] [Ad]2 [Ac][Ad] | %12
w: ter- nal shall from Him re-|ceive.|||
w: look to Him by faith and|live?|He is|call- ing you to- day, will you|
w: gar- ment that your soul must|wear.|||
 [Ge]6 [EB][EB] | [DB][DA][DA][DA] [Ad]2 [Ac][Ad] | [Ge]6 [GB][GB] | %15
w: |||
w: come? To the|on- ly liv- ing way, will you|come? Will you|
w: |||
 [Ge][Ge][Fd][Fd] [Ec]2 [EG][EG] | [=Ec][Ec][GB][GB] !fermata![FA]2 [_Ec][Ec] | %17
w: ||
w: plunge be- neath the flood Of His|all- a- ton- ing blood? Will you|
w: ||
 [Ec][DB][DB][Ge] [Fd]2 [Ac][Ad] | [Ge]6 |] %19
w: ||
w: be a child of God? Will you|come?|
w: ||
V:2
 x2 | x8 | G6 x2 | x4 | E2 x2 | x8 | x8 | G6 x2 | x8 | x6 || x2 | x8 | x8 | x8 | x8 | x8 | x8 | %17
 x8 | x6 |] %19
V:3
 [E,B,][E,B,] | [E,E][E,E][E,E][E,E] [E,E]2 [E,B,][E,B,] | (B,4 E2) [E,B,][E,B,] | %3
w: ~ ~|~ ~ ~ ~ ~ ~ ~|~ * ~ ~|
 [E,E][E,E][E,E][E,B,] | [G,B,]2 [F,B,][E,B,] | [B,,B,]6 [E,B,][E,B,] | %6
w: ~ ~ ~ ~|~ ~ ~|~ ~~ ~|
 [E,E][E,E][E,E][E,E] [E,E]2 [E,B,][E,B,] | (C4 E2) A,A, | %8
w: ~ ~ ~ ~ ~ ~ ~|~ * ~ ~|
 [G,B,][G,B,][G,B,][E,B,] [F,B,]2 [F,=A,]2 | [B,,B,]6 || [B,,F,][B,,F,] | %11
w: ~ ~ ~ ~ ~ ~|~|~ ~|
 [B,,F,][B,,F,][B,,F,][B,,F,] [B,,F,]2 [B,,B,][B,,B,] | [E,B,]2 [E,B,][E,B,] [E,B,]2 [E,G,][E,G,] | %13
w: ~ ~ ~ ~ ~ ~ ~|~ will you come ~~ ~|
 [B,,F,][B,,F,][B,,F,][B,,F,] [B,,F,]2 [B,,B,][B,,B,] | [E,B,]2 [E,B,][E,B,] [E,B,]2 [E,E][E,E] | %15
w: ~ ~ ~ ~ ~ ~ ~|~ will you come * *|
 [E,B,][E,B,][G,=B,][G,B,] [A,C]2 [C,C][C,C] | %16
w: |
 [C,G,][C,G,][=E,C][E,C] !fermata![F,C]2 [F,=A,][F,A,] | %17
w: |
 [B,,B,][B,,B,][B,,B,][B,,B,] [B,,B,]2 [B,,B,][B,,B,] | [E,B,]6 |] %19
w: ||
V:4
 x2 | x8 | E,6 x2 | x4 | x4 | x8 | x8 | A,6 A,A, | x8 | x6 || x2 | x8 | x8 | x8 | x8 | x8 | x8 | %17
 x8 | x6 |] %19

